;FLAVOR:Marlin
;TIME:8886
;Filament used: 5.57417m
;Layer height: 0.2
;MINX:41.5
;MINY:38
;MINZ:0.2
;MAXX:178.5
;MAXY:141.001
;MAXZ:12
;Generated with Cura_SteamEngine 4.8.0
M140 S60
M105
M190 S60
M104 S200
M105
M109 S200
M82 ;absolute extrusion mode
; Ender 3 Custom Start G-code
G92 E0 ; Reset Extruder
G28 ; Home all axes
G1 Z2.0 F3000 ; Move Z Axis up little to prevent scratching of Heat Bed
G1 X0.1 Y20 Z0.3 F5000.0 ; Move to start position
G1 X0.1 Y200.0 Z0.3 F1500.0 E15 ; Draw the first line
G1 X0.4 Y200.0 Z0.3 F5000.0 ; Move to side a little
G1 X0.4 Y20 Z0.3 F1500.0 E30 ; Draw the second line
G92 E0 ; Reset Extruder
G1 Z2.0 F3000 ; Move Z Axis up little to prevent scratching of Heat Bed
G1 X5 Y20 Z0.3 F5000.0 ; Move over to prevent blob squish
G92 E0
G92 E0
G1 F1500 E-6.5
;LAYER_COUNT:60
;LAYER:0
M107
G0 F6000 X45.247 Y41.886 Z0.2
;TYPE:SKIRT
G1 F1500 E0
G1 F1200 X45.748 Y41.412 E0.02294
G1 X46.008 Y41.181 E0.03451
G1 X46.735 Y40.588 E0.06571
G1 X47.324 Y40.178 E0.08958
G1 X47.515 Y40.054 E0.09715
G1 X48.323 Y39.577 E0.12836
G1 X48.853 Y39.312 E0.14807
G1 X49.183 Y39.158 E0.16018
G1 X50.049 Y38.798 E0.19138
G1 X50.785 Y38.557 E0.21713
G1 X50.986 Y38.499 E0.22409
G1 X51.898 Y38.278 E0.2553
G1 X52.488 Y38.177 E0.27521
G1 X52.896 Y38.119 E0.28892
G1 X53.928 Y38.022 E0.32339
G1 X54.077 Y38.015 E0.32836
G1 X54.501 Y38.003 E0.34246
G1 X54.861 Y38 E0.35444
G1 X164.794 Y38 E4.01082
G1 X165.656 Y38.011 E4.0395
G1 X166.243 Y38.035 E4.05904
G1 X166.494 Y38.052 E4.0674
G1 X167.426 Y38.155 E4.09859
G1 X167.968 Y38.253 E4.11691
G1 X168.245 Y38.31 E4.12632
G1 X169.155 Y38.538 E4.15752
G1 X169.807 Y38.754 E4.18036
G1 X170.094 Y38.859 E4.19053
G1 X170.961 Y39.218 E4.22174
G1 X171.563 Y39.522 E4.24417
G1 X171.843 Y39.674 E4.25477
G1 X172.647 Y40.156 E4.28594
G1 X173.254 Y40.586 E4.31069
G1 X173.467 Y40.748 E4.31959
G1 X174.189 Y41.347 E4.35079
G1 X174.646 Y41.785 E4.37184
G1 X174.84 Y41.982 E4.38104
G1 X175.469 Y42.677 E4.41222
G1 X175.884 Y43.211 E4.43471
G1 X176.09 Y43.493 E4.44632
G1 X176.611 Y44.274 E4.47755
G1 X176.984 Y44.938 E4.50288
G1 X177.081 Y45.126 E4.50992
G1 X177.475 Y45.977 E4.54111
G1 X177.686 Y46.532 E4.56086
G1 X177.802 Y46.863 E4.57252
G1 X178.074 Y47.76 E4.6037
G1 X178.223 Y48.422 E4.62627
G1 X178.274 Y48.687 E4.63524
G1 X178.446 Y50.014 E4.67975
G1 X178.466 Y50.306 E4.68948
G1 X178.487 Y50.72 E4.70327
G1 X178.494 Y50.985 E4.71209
G1 X178.5 Y51.498 E4.72915
G1 X178.499 Y86.475 E5.89249
G1 X178.474 Y88.263 E5.95197
G1 X178.475 Y90.965 E6.04183
G1 X178.5 Y92.746 E6.10108
G1 X178.498 Y127.525 E7.25783
G1 X178.489 Y128.185 E7.27978
G1 X178.431 Y129.17 E7.3126
G1 X178.398 Y129.488 E7.32324
G1 X178.262 Y130.416 E7.35443
G1 X178.126 Y131.03 E7.37535
G1 X178.06 Y131.293 E7.38437
G1 X177.793 Y132.193 E7.41559
G1 X177.542 Y132.855 E7.43914
G1 X177.428 Y133.128 E7.44898
G1 X177.03 Y133.977 E7.48016
G1 X176.692 Y134.577 E7.50307
G1 X176.515 Y134.87 E7.51445
G1 X175.997 Y135.651 E7.54562
G1 X175.52 Y136.26 E7.57135
G1 X175.367 Y136.442 E7.57926
G1 X174.733 Y137.134 E7.61048
G1 X174.304 Y137.542 E7.63017
G1 X174.085 Y137.739 E7.63997
G1 X173.361 Y138.336 E7.67118
G1 X172.83 Y138.714 E7.69286
G1 X172.575 Y138.884 E7.70305
G1 X171.773 Y139.37 E7.73424
G1 X171.121 Y139.701 E7.75856
G1 X170.825 Y139.839 E7.76942
G1 X169.959 Y140.198 E7.8006
G1 X169.254 Y140.43 E7.82529
G1 X168.976 Y140.511 E7.83492
G1 X168.065 Y140.735 E7.86612
G1 X167.416 Y140.845 E7.88801
G1 X167.258 Y140.867 E7.89332
G1 X166.752 Y140.925 E7.91026
G1 X166.492 Y140.949 E7.91894
G1 X165.586 Y140.995 E7.94912
G1 X164.957 Y141.001 E7.97004
G1 X55.041 Y141 E11.62586
G1 X54.335 Y140.99 E11.64934
G1 X53.986 Y140.98 E11.66096
G1 X53.413 Y140.942 E11.68006
G1 X53.205 Y140.923 E11.687
G1 X51.869 Y140.718 E11.73196
G1 X51.662 Y140.673 E11.739
G1 X50.755 Y140.435 E11.77019
G1 X50.224 Y140.256 E11.78883
G1 X49.901 Y140.138 E11.80027
G1 X49.035 Y139.779 E11.83145
G1 X48.463 Y139.492 E11.85273
G1 X48.201 Y139.351 E11.86263
G1 X47.395 Y138.872 E11.89381
G1 X46.814 Y138.465 E11.91741
G1 X46.586 Y138.294 E11.92689
G1 X45.86 Y137.7 E11.95809
G1 X45.346 Y137.21 E11.9817
G1 X45.16 Y137.021 E11.99052
G1 X44.531 Y136.325 E12.02173
G1 X44.118 Y135.794 E12.0441
G1 X43.912 Y135.512 E12.05572
G1 X43.391 Y134.731 E12.08694
G1 X43.03 Y134.09 E12.11141
G1 X42.934 Y133.905 E12.11834
G1 X42.721 Y133.471 E12.13442
G1 X42.301 Y132.448 E12.1712
G1 X42.223 Y132.227 E12.179
G1 X41.949 Y131.33 E12.21019
G1 X41.793 Y130.639 E12.23375
G1 X41.722 Y130.269 E12.24628
G1 X41.55 Y128.933 E12.29109
G1 X41.533 Y128.68 E12.29952
G1 X41.511 Y128.224 E12.3147
G1 X41.505 Y127.947 E12.32392
G1 X41.5 Y127.452 E12.34038
G1 X41.501 Y92.545 E13.5014
G1 X41.525 Y90.817 E13.55888
G1 X41.505 Y87.069 E13.68354
G1 X41.5 Y86.614 E13.69867
G1 X41.502 Y51.449 E14.86826
G1 X41.511 Y50.831 E14.88882
G1 X41.566 Y49.881 E14.92047
G1 X41.601 Y49.536 E14.932
G1 X41.736 Y48.608 E14.96319
G1 X41.906 Y47.85 E14.98903
G1 X41.988 Y47.538 E14.99976
G1 X42.265 Y46.642 E15.03095
G1 X42.509 Y46.018 E15.05324
G1 X42.602 Y45.8 E15.06112
G1 X43.007 Y44.954 E15.09232
G1 X43.318 Y44.406 E15.11327
G1 X43.499 Y44.108 E15.12487
G1 X44.02 Y43.327 E15.1561
G1 X44.462 Y42.762 E15.17996
G1 X44.615 Y42.579 E15.18789
G1 X45.247 Y41.886 E15.21908
G0 F6000 X45.542 Y42.156
G1 F1200 X46.014 Y41.711 E15.24066
G1 X46.274 Y41.48 E15.25223
G1 X46.988 Y40.899 E15.28284
G1 X47.542 Y40.513 E15.3053
G1 X47.733 Y40.389 E15.31288
G1 X48.526 Y39.922 E15.34349
G1 X49.022 Y39.674 E15.36193
G1 X49.352 Y39.52 E15.37404
G1 X50.203 Y39.168 E15.40467
G1 X50.896 Y38.942 E15.42892
G1 X51.097 Y38.884 E15.43587
G1 X51.992 Y38.667 E15.4665
G1 X52.544 Y38.574 E15.48512
G1 X52.952 Y38.516 E15.49883
G1 X53.947 Y38.422 E15.53207
G1 X54.096 Y38.415 E15.53703
G1 X54.505 Y38.403 E15.55064
G1 X54.865 Y38.4 E15.56261
G1 X164.794 Y38.4 E19.21887
G1 X165.65 Y38.411 E19.24734
G1 X166.216 Y38.434 E19.26618
G1 X166.467 Y38.451 E19.27455
G1 X167.382 Y38.553 E19.30517
G1 X167.887 Y38.645 E19.32224
G1 X168.164 Y38.702 E19.33165
G1 X169.057 Y38.926 E19.36227
G1 X169.67 Y39.129 E19.38375
G1 X169.957 Y39.234 E19.39391
G1 X170.807 Y39.588 E19.42454
G1 X171.372 Y39.873 E19.44559
G1 X171.652 Y40.025 E19.45618
G1 X172.441 Y40.499 E19.4868
G1 X173.012 Y40.904 E19.51008
G1 X173.225 Y41.066 E19.51898
G1 X173.933 Y41.655 E19.54961
G1 X174.361 Y42.065 E19.56932
G1 X174.555 Y42.262 E19.57852
G1 X175.172 Y42.946 E19.60916
G1 X175.561 Y43.447 E19.63026
G1 X175.767 Y43.729 E19.64187
G1 X176.278 Y44.496 E19.67252
G1 X176.628 Y45.122 E19.69638
G1 X176.725 Y45.31 E19.70341
G1 X177.111 Y46.145 E19.73401
G1 X177.308 Y46.664 E19.75247
G1 X177.424 Y46.995 E19.76414
G1 X177.691 Y47.876 E19.79476
G1 X177.83 Y48.498 E19.81596
G1 X177.881 Y48.763 E19.82493
G1 X178.047 Y50.042 E19.86783
G1 X178.067 Y50.334 E19.87756
G1 X178.087 Y50.735 E19.89092
G1 X178.094 Y50.99 E19.8994
G1 X178.1 Y51.498 E19.9163
G1 X178.099 Y86.469 E21.07944
G1 X178.074 Y88.257 E21.13891
G1 X178.075 Y90.971 E21.22918
G1 X178.1 Y92.746 E21.28822
G1 X178.098 Y127.52 E22.44481
G1 X178.089 Y128.18 E22.46677
G1 X178.033 Y129.129 E22.49839
G1 X178 Y129.447 E22.50902
G1 X177.866 Y130.358 E22.53964
G1 X177.738 Y130.933 E22.55924
G1 X177.672 Y131.196 E22.56826
G1 X177.41 Y132.078 E22.59886
G1 X177.172 Y132.701 E22.62104
G1 X177.058 Y132.974 E22.63088
G1 X176.667 Y133.807 E22.66149
G1 X176.35 Y134.37 E22.68298
G1 X176.173 Y134.663 E22.69436
G1 X175.663 Y135.43 E22.725
G1 X175.214 Y136.003 E22.74921
G1 X175.061 Y136.185 E22.75712
G1 X174.438 Y136.863 E22.78774
G1 X174.036 Y137.245 E22.80619
G1 X173.817 Y137.442 E22.81598
G1 X173.106 Y138.027 E22.84661
G1 X172.608 Y138.381 E22.86693
G1 X172.353 Y138.551 E22.87712
G1 X171.565 Y139.028 E22.90776
G1 X170.952 Y139.338 E22.93061
G1 X170.656 Y139.476 E22.94147
G1 X169.806 Y139.829 E22.97208
G1 X169.142 Y140.046 E22.99531
G1 X168.864 Y140.127 E23.00495
G1 X167.97 Y140.346 E23.03556
G1 X167.361 Y140.449 E23.0561
G1 X167.203 Y140.471 E23.06141
G1 X166.715 Y140.527 E23.07775
G1 X166.455 Y140.551 E23.08643
G1 X165.582 Y140.596 E23.1155
G1 X165.058 Y140.601 E23.13293
G1 X55.047 Y140.6 E26.79191
G1 X54.341 Y140.59 E26.8154
G1 X54.001 Y140.58 E26.82671
G1 X53.45 Y140.544 E26.84508
G1 X53.242 Y140.525 E26.85202
G1 X51.954 Y140.327 E26.89537
G1 X51.747 Y140.282 E26.90241
G1 X50.857 Y140.048 E26.93302
G1 X50.362 Y139.88 E26.95041
G1 X50.039 Y139.762 E26.96184
G1 X49.188 Y139.409 E26.99249
G1 X48.653 Y139.14 E27.0124
G1 X48.391 Y138.999 E27.0223
G1 X47.6 Y138.528 E27.05292
G1 X47.054 Y138.145 E27.0751
G1 X46.826 Y137.974 E27.08458
G1 X46.114 Y137.39 E27.11521
G1 X45.631 Y136.929 E27.13742
G1 X45.445 Y136.74 E27.14624
G1 X44.828 Y136.057 E27.17685
G1 X44.441 Y135.558 E27.19785
G1 X44.235 Y135.276 E27.20947
G1 X43.724 Y134.509 E27.24012
G1 X43.385 Y133.905 E27.26316
G1 X43.289 Y133.72 E27.27009
G1 X43.083 Y133.3 E27.28565
G1 X42.678 Y132.315 E27.32107
G1 X42.6 Y132.094 E27.32887
G1 X42.332 Y131.213 E27.35949
G1 X42.186 Y130.564 E27.38162
G1 X42.115 Y130.194 E27.39415
G1 X41.949 Y128.907 E27.43731
G1 X41.932 Y128.654 E27.44574
G1 X41.911 Y128.209 E27.46056
G1 X41.905 Y127.943 E27.46941
G1 X41.9 Y127.452 E27.48574
G1 X41.901 Y92.551 E28.64656
G1 X41.925 Y90.82 E28.70413
G1 X41.905 Y87.059 E28.82923
G1 X41.9 Y86.611 E28.84413
G1 X41.902 Y51.455 E30.01342
G1 X41.911 Y50.837 E30.03398
G1 X41.964 Y49.921 E30.0645
G1 X41.999 Y49.576 E30.07603
G1 X42.132 Y48.665 E30.10665
G1 X42.293 Y47.952 E30.13096
G1 X42.375 Y47.64 E30.14169
G1 X42.648 Y46.76 E30.17234
G1 X42.877 Y46.175 E30.19323
G1 X42.97 Y45.957 E30.20111
G1 X43.368 Y45.126 E30.23176
G1 X43.66 Y44.613 E30.25139
G1 X43.841 Y44.315 E30.26299
G1 X44.353 Y43.55 E30.29361
G1 X44.769 Y43.019 E30.31604
G1 X44.922 Y42.836 E30.32398
G1 X45.542 Y42.156 E30.35458
G0 F6000 X45.838 Y42.426
G1 F1200 X46.279 Y42.01 E30.37475
G1 X46.539 Y41.779 E30.38631
G1 X47.24 Y41.209 E30.41636
G1 X47.76 Y40.849 E30.4374
G1 X47.951 Y40.725 E30.44497
G1 X48.729 Y40.267 E30.475
G1 X49.192 Y40.037 E30.4922
G1 X49.522 Y39.883 E30.50431
G1 X50.356 Y39.538 E30.53433
G1 X51.007 Y39.326 E30.5571
G1 X51.208 Y39.268 E30.56406
G1 X52.086 Y39.056 E30.5941
G1 X52.6 Y38.97 E30.61143
G1 X53.008 Y38.912 E30.62514
G1 X53.965 Y38.821 E30.65711
G1 X54.114 Y38.814 E30.66207
G1 X54.508 Y38.803 E30.67518
G1 X54.868 Y38.8 E30.68716
G1 X164.794 Y38.8 E34.34331
G1 X165.644 Y38.811 E34.37158
G1 X166.189 Y38.833 E34.38973
G1 X166.44 Y38.85 E34.39809
G1 X167.338 Y38.951 E34.42815
G1 X167.807 Y39.036 E34.444
G1 X168.084 Y39.093 E34.45341
G1 X168.959 Y39.314 E34.48342
G1 X169.533 Y39.505 E34.50354
G1 X169.82 Y39.61 E34.51371
G1 X170.653 Y39.957 E34.54372
G1 X171.181 Y40.225 E34.56342
G1 X171.461 Y40.377 E34.57401
G1 X172.235 Y40.842 E34.60405
G1 X172.77 Y41.222 E34.62587
G1 X172.983 Y41.384 E34.63477
G1 X173.677 Y41.962 E34.66481
G1 X174.076 Y42.346 E34.68323
G1 X174.27 Y42.543 E34.69243
G1 X174.874 Y43.214 E34.72245
G1 X175.238 Y43.683 E34.7422
G1 X175.444 Y43.965 E34.75381
G1 X175.944 Y44.717 E34.78385
G1 X176.273 Y45.305 E34.80626
G1 X176.37 Y45.493 E34.8133
G1 X176.748 Y46.313 E34.84333
G1 X176.931 Y46.797 E34.86054
G1 X177.047 Y47.128 E34.8722
G1 X177.308 Y47.992 E34.90222
G1 X177.437 Y48.573 E34.92202
G1 X177.488 Y48.838 E34.93099
G1 X177.648 Y50.069 E34.97228
G1 X177.668 Y50.361 E34.98202
G1 X177.688 Y50.75 E34.99497
G1 X177.694 Y50.996 E35.00316
G1 X177.7 Y51.498 E35.01985
G1 X177.699 Y86.463 E36.18279
G1 X177.674 Y88.252 E36.2423
G1 X177.675 Y90.977 E36.33294
G1 X177.7 Y92.746 E36.39178
G1 X177.698 Y127.514 E37.54817
G1 X177.689 Y128.174 E37.57012
G1 X177.636 Y129.088 E37.60057
G1 X177.603 Y129.406 E37.61121
G1 X177.47 Y130.299 E37.64123
G1 X177.35 Y130.836 E37.65954
G1 X177.284 Y131.099 E37.66855
G1 X177.026 Y131.964 E37.69858
G1 X176.803 Y132.546 E37.71931
G1 X176.689 Y132.819 E37.72915
G1 X176.305 Y133.637 E37.7592
G1 X176.008 Y134.163 E37.77929
G1 X175.831 Y134.456 E37.79068
G1 X175.33 Y135.208 E37.82073
G1 X174.908 Y135.746 E37.84347
G1 X174.755 Y135.928 E37.85138
G1 X174.143 Y136.592 E37.88142
G1 X173.769 Y136.947 E37.89857
G1 X173.55 Y137.144 E37.90836
G1 X172.852 Y137.718 E37.93842
G1 X172.386 Y138.048 E37.95741
G1 X172.131 Y138.218 E37.96761
G1 X171.358 Y138.685 E37.99765
G1 X170.783 Y138.976 E38.01908
G1 X170.487 Y139.114 E38.02994
G1 X169.652 Y139.459 E38.05999
G1 X169.03 Y139.662 E38.08175
G1 X168.752 Y139.743 E38.09138
G1 X167.875 Y139.957 E38.12141
G1 X167.306 Y140.053 E38.1406
G1 X167.148 Y140.075 E38.14591
G1 X166.679 Y140.129 E38.16161
G1 X166.419 Y140.153 E38.17029
G1 X165.578 Y140.196 E38.1983
G1 X165.054 Y140.201 E38.21573
G1 X55.053 Y140.2 E41.87438
G1 X54.347 Y140.19 E41.89786
G1 X54.017 Y140.18 E41.90884
G1 X53.486 Y140.146 E41.92654
G1 X53.278 Y140.127 E41.93349
G1 X52.039 Y139.936 E41.97518
G1 X51.832 Y139.891 E41.98223
G1 X50.959 Y139.66 E42.01227
G1 X50.499 Y139.505 E42.02841
G1 X50.176 Y139.387 E42.03985
G1 X49.342 Y139.04 E42.06989
G1 X48.842 Y138.788 E42.08851
G1 X48.58 Y138.647 E42.09841
G1 X47.805 Y138.184 E42.12844
G1 X47.294 Y137.825 E42.14921
G1 X47.066 Y137.654 E42.15869
G1 X46.368 Y137.081 E42.18872
G1 X45.916 Y136.649 E42.20952
G1 X45.73 Y136.46 E42.21834
G1 X45.126 Y135.788 E42.24839
G1 X44.764 Y135.322 E42.26802
G1 X44.558 Y135.04 E42.27963
G1 X44.058 Y134.288 E42.30967
G1 X43.74 Y133.721 E42.33129
G1 X43.644 Y133.536 E42.33822
G1 X43.445 Y133.13 E42.35326
G1 X43.055 Y132.182 E42.38735
G1 X42.977 Y131.961 E42.39515
G1 X42.715 Y131.097 E42.42518
G1 X42.579 Y130.488 E42.44593
G1 X42.508 Y130.118 E42.45846
G1 X42.348 Y128.88 E42.49998
G1 X42.331 Y128.627 E42.50842
G1 X42.314 Y128.307 E42.51907
G1 X42.305 Y127.939 E42.53132
G1 X42.3 Y127.452 E42.54752
G1 X42.301 Y92.557 E43.70813
G1 X42.326 Y90.824 E43.76577
G1 X42.305 Y87.05 E43.8913
G1 X42.3 Y86.608 E43.906
G1 X42.302 Y51.46 E45.07503
G1 X42.311 Y50.842 E45.09559
G1 X42.362 Y49.962 E45.1249
G1 X42.397 Y49.617 E45.13644
G1 X42.528 Y48.723 E45.16649
G1 X42.68 Y48.053 E45.18934
G1 X42.762 Y47.741 E45.20007
G1 X43.03 Y46.879 E45.23009
G1 X43.245 Y46.332 E45.24964
G1 X43.338 Y46.114 E45.25753
G1 X43.729 Y45.299 E45.28759
G1 X44.002 Y44.821 E45.3059
G1 X44.183 Y44.523 E45.3175
G1 X44.686 Y43.773 E45.34753
G1 X45.076 Y43.276 E45.36854
G1 X45.229 Y43.093 E45.37648
G1 X45.838 Y42.426 E45.40652
G1 F1500 E38.90652
;MESH:case-case.stl
G0 F6000 X51.883 Y50.482
G0 X52.92 Y50.929
G0 X53.274 Y87.041
G0 X53.348 Y87.415
G0 X53.515 Y87.729
G0 X54.435 Y88.399
;TYPE:WALL-INNER
G1 F1500 E45.40652
G1 F1200 X54.026 Y88.316 E45.4204
G1 X53.673 Y88.127 E45.43372
G1 X53.377 Y87.833 E45.44759
G1 X53.185 Y87.473 E45.46116
G1 X53.103 Y87.059 E45.4752
G1 X53.1 Y86.882 E45.48109
G1 X53.101 Y50.935 E46.67669
G1 X53.185 Y50.526 E46.69058
G1 X53.374 Y50.171 E46.70395
G1 X53.665 Y49.879 E46.71766
G1 X54.024 Y49.686 E46.73122
G1 X54.442 Y49.603 E46.7454
G1 X54.591 Y49.6 E46.75035
G1 X165.486 Y49.6 E50.43873
G1 X165.9 Y49.659 E50.45264
G1 X166.279 Y49.84 E50.46661
G1 X166.577 Y50.109 E50.47997
G1 X166.79 Y50.462 E50.49368
G1 X166.892 Y50.868 E50.5076
G1 X166.9 Y51.01 E50.51233
G1 X166.9 Y86.984 E51.70883
G1 X166.84 Y87.4 E51.72281
G1 X166.662 Y87.777 E51.73668
G1 X166.39 Y88.078 E51.75017
G1 X166.028 Y88.294 E51.76419
G1 X165.64 Y88.391 E51.77749
G1 X165.418 Y88.4 E51.78488
G1 X54.435 Y88.399 E55.47619
G0 F6000 X54.158 Y88.768
;TYPE:WALL-OUTER
G1 F1200 X53.894 Y88.694 E55.48531
G1 X53.652 Y88.588 E55.4941
G1 X53.433 Y88.448 E55.50274
G1 X53.225 Y88.269 E55.51187
G1 X53.056 Y88.073 E55.52048
G1 X52.914 Y87.85 E55.52927
G1 X52.808 Y87.61 E55.538
G1 X52.735 Y87.351 E55.54695
G1 X52.703 Y87.083 E55.55593
G1 X52.7 Y86.882 E55.56261
G1 X52.701 Y50.912 E56.75898
G1 X52.732 Y50.658 E56.76749
G1 X52.807 Y50.392 E56.77668
G1 X52.913 Y50.151 E56.78544
G1 X53.054 Y49.929 E56.79419
G1 X53.227 Y49.729 E56.80298
G1 X53.425 Y49.558 E56.81168
G1 X53.654 Y49.412 E56.82072
G1 X53.89 Y49.308 E56.82929
G1 X54.149 Y49.235 E56.83824
G1 X54.418 Y49.203 E56.84725
G1 X54.584 Y49.2 E56.85278
G1 X165.501 Y49.2 E60.54189
G1 X165.761 Y49.219 E60.55056
G1 X166.017 Y49.276 E60.55928
G1 X166.269 Y49.373 E60.56826
G1 X166.499 Y49.504 E60.57707
G1 X166.708 Y49.666 E60.58586
